X: 4698
T: Boys In The Bunker, The
R: polka
M: 2/4
K: Eminor
|:EB BA|FG AF|GA Bc|BA GF|
EB BA|FG AB|dB AF|1 GE ED:|2 GE EA||
|:Bc/B/ GB|Ad FA|GA Bc|BA GB|
d2 AG|FD EF|GB AF|1 GE EA:|2 GE ED||

